X:5228
T:Portez une bouteille
O:england
C:MCTB 2/35
M:3/8
L:1/8
K:C
gfe|dg2|d/e/fg|f/e/dc|\
gfe|dg2|d/e/fg|1 c3:|2 c2:|
|:G|cBc|ed2|d/e/fg|f/e/dc|\
cBc|ed2|d/e/fg|1 c2:|2 c3||


